; generated by PrusaSlicer 2.5.0+win64 on 2022-10-29 at 17:06:16 UTC


;
;

;
;
; 

; external perimeters extrusion width = 0.45mm
; perimeters extrusion width = 0.45mm
; infill extrusion width = 0.45mm
; solid infill extrusion width = 0.45mm
; top infill extrusion width = 0.40mm
; first layer extrusion width = 0.42mm

M107
;TYPE:Custom
G90 ; use absolute coordinates
M83 ; extruder relative mode
M140 S60 ; set final bed temp
M104 S150 ; set temporary nozzle temp to prevent oozing during homing
G4 S10 ; allow partial nozzle warmup
G28 ; home all axis
G1 Z50 F240
G1 X2 Y10 F3000
M104 S210 ; set final nozzle temp
M190 S60 ; wait for bed temp to stabilize
M109 S210 ; wait for nozzle temp to stabilize
G1 Z0.28 F240
G92 E0
G1 Y140 E10 F1500 ; prime the nozzle
G1 X2.3 F5000
G92 E0
G1 Y10 E10 F1200 ; prime the nozzle
G92 E0
G21 ; set units to millimeters
G90 ; use absolute coordinates
M83 ; use relative distances for extrusion
; Filament gcode
M107
;LAYER_CHANGE
;Z:0.2
;HEIGHT:0.2
;BEFORE_LAYER_CHANGE
G92 E0
;0.2


G1 E-5 F3600
G1 Z.2 F9000
;AFTER_LAYER_CHANGE
;0.2
G1 X94.371 Y81.063
G1 E5 F2400
M204 P500
;TYPE:Skirt/Brim
;WIDTH:0.42
G1 F1200
G1 X95.613 Y79.75 E.05667
G1 X96.063 Y79.371 E.01846
G1 X97.573 Y78.377 E.05667
G1 X98.679 Y77.861 E.03826
G1 X100.398 Y77.348 E.05626
G1 X102.487 Y77.124 E.06587
G1 X128.794 Y77.136 E.82485
G1 X130.571 Y77.342 E.05608
G1 X132.321 Y77.861 E.05725
G1 X133.937 Y78.671 E.05667
G1 X135.387 Y79.75 E.05667
G1 X136.629 Y81.063 E.05667
G1 X137.623 Y82.573 E.05667
G1 X138.34 Y84.232 E.05667
G1 X138.754 Y85.972 E.05607
G1 X138.876 Y87.487 E.04767
G1 X138.877 Y143.5 E1.75624
G1 X138.658 Y145.571 E.06529
G1 X138.139 Y147.321 E.05725
G1 X137.329 Y148.937 E.05667
G1 X136.629 Y149.937 E.03826
G1 X135.415 Y151.223 E.05546
G1 X134.937 Y151.629 E.01966
G1 X133.937 Y152.329 E.03826
G1 X132.321 Y153.139 E.05667
G1 X131.768 Y153.34 E.01846
G1 X130.028 Y153.754 E.05607
G1 X128.513 Y153.876 E.04767
G1 X102.5 Y153.877 E.81561
G1 X100.429 Y153.658 E.0653
G1 X98.679 Y153.139 E.05725
G1 X97.573 Y152.623 E.03826
G1 X96.063 Y151.629 E.05667
G1 X95.613 Y151.25 E.01846
G1 X94.371 Y149.937 E.05667
G1 X93.377 Y148.427 E.05667
G1 X92.861 Y147.321 E.03826
G1 X92.348 Y145.602 E.05627
G1 X92.137 Y143.813 E.05647
G1 X92.123 Y87.5 E1.76566
G1 X92.342 Y85.429 E.06529
G1 X92.861 Y83.679 E.05725
G1 X93.671 Y82.063 E.05667
G1 X94.337 Y81.113 E.03638
G1 E-3.5 F3600
;WIPE_START
G1 F7200
G1 X95.613 Y79.75 E-.88668
G1 X96.063 Y79.371 E-.27962
G1 X96.518 Y79.072 E-.2587
;WIPE_END
G1 E-.075 F3600
G1 X128.486 Y150.19 F9000
G1 E5 F2400
;TYPE:External perimeter
;WIDTH:0.419999
G1 F1200
G1 X102.514 Y150.19 E.81436
G1 X101.339 Y150.087 E.03698
G1 X100.212 Y149.785 E.03656
G1 X99.156 Y149.293 E.03656
G1 X98.201 Y148.624 E.03656
G1 X97.376 Y147.799 E.03656
G1 X96.707 Y146.844 E.03656
G1 X96.215 Y145.788 E.03656
G1 X95.913 Y144.661 E.03656
G1 X95.81 Y143.486 E.03698
G1 X95.81 Y87.514 E1.75499
G1 X95.913 Y86.339 E.03698
G1 X96.215 Y85.212 E.03656
G1 X96.707 Y84.156 E.03656
G1 X97.376 Y83.201 E.03656
G1 X98.201 Y82.376 E.03656
G1 X99.156 Y81.707 E.03656
G1 X100.212 Y81.215 E.03656
G1 X101.339 Y80.913 E.03656
G1 X102.514 Y80.81 E.03698
G1 X128.486 Y80.81 E.81436
G1 X129.661 Y80.913 E.03698
G1 X130.788 Y81.215 E.03656
G1 X131.844 Y81.707 E.03656
G1 X132.799 Y82.376 E.03656
G1 X133.624 Y83.201 E.03656
G1 X134.293 Y84.156 E.03656
G1 X134.785 Y85.212 E.03656
G1 X135.087 Y86.339 E.03656
G1 X135.163 Y87.209 E.02739
G1 X135.19 Y87.82 E.01917
G1 X135.19 Y143.486 E1.74539
G1 X135.087 Y144.661 E.03698
G1 X134.785 Y145.788 E.03656
G1 X134.293 Y146.844 E.03656
G1 X133.624 Y147.799 E.03656
G1 X132.799 Y148.624 E.03656
G1 X131.844 Y149.293 E.03656
G1 X130.788 Y149.785 E.03656
G1 X129.661 Y150.087 E.03656
G1 X128.546 Y150.185 E.0351
G1 X128.267 Y149.856 F9000
G1 X128.47 Y149.813
;TYPE:Perimeter
G1 F1200
G1 X102.53 Y149.813 E.81333
G1 X101.404 Y149.714 E.03543
G1 X100.342 Y149.43 E.03449
G1 X99.345 Y148.965 E.03449
G1 X98.444 Y148.334 E.03449
G1 X97.666 Y147.556 E.03449
G1 X97.035 Y146.655 E.03449
G1 X96.57 Y145.658 E.03449
G1 X96.286 Y144.596 E.03449
G1 X96.187 Y143.47 E.03543
G1 X96.187 Y87.53 E1.75396
G1 X96.286 Y86.404 E.03543
G1 X96.57 Y85.342 E.03449
G1 X97.035 Y84.345 E.03449
G1 X97.666 Y83.444 E.03449
G1 X98.444 Y82.666 E.03449
G1 X99.345 Y82.035 E.03449
G1 X100.342 Y81.57 E.03449
G1 X101.404 Y81.286 E.03449
G1 X102.53 Y81.187 E.03543
G1 X128.47 Y81.187 E.81333
G1 X129.596 Y81.286 E.03543
G1 X130.658 Y81.57 E.03449
G1 X131.655 Y82.035 E.03449
G1 X132.556 Y82.666 E.03449
G1 X133.334 Y83.444 E.03449
G1 X133.965 Y84.345 E.03449
G1 X134.43 Y85.342 E.03449
G1 X134.714 Y86.404 E.03449
G1 X134.788 Y87.242 E.02635
G1 X134.813 Y87.82 E.01814
G1 X134.813 Y143.47 E1.74488
G1 X134.714 Y144.596 E.03543
G1 X134.43 Y145.658 E.03449
G1 X133.965 Y146.655 E.03449
G1 X133.334 Y147.556 E.03449
G1 X132.556 Y148.334 E.03449
G1 X131.655 Y148.965 E.03449
G1 X130.658 Y149.43 E.03449
G1 X129.596 Y149.714 E.03449
G1 X128.53 Y149.808 E.03355
G1 X128.454 Y149.436 F9000
G1 F1200
G1 X102.546 Y149.436 E.8123
G1 X101.47 Y149.342 E.03388
G1 X100.471 Y149.074 E.03242
G1 X99.534 Y148.637 E.03242
G1 X98.687 Y148.044 E.03242
G1 X97.956 Y147.313 E.03242
G1 X97.363 Y146.466 E.03242
G1 X96.926 Y145.529 E.03242
G1 X96.658 Y144.53 E.03242
G1 X96.564 Y143.454 E.03388
G1 X96.564 Y87.546 E1.75293
G1 X96.658 Y86.47 E.03388
G1 X96.926 Y85.471 E.03242
G1 X97.363 Y84.534 E.03242
G1 X97.956 Y83.687 E.03242
G1 X98.687 Y82.956 E.03242
G1 X99.534 Y82.363 E.03242
G1 X100.471 Y81.926 E.03242
G1 X101.47 Y81.658 E.03242
G1 X102.546 Y81.564 E.03388
G1 X128.454 Y81.564 E.8123
G1 X129.53 Y81.658 E.03388
G1 X130.529 Y81.926 E.03242
G1 X131.466 Y82.363 E.03242
G1 X132.313 Y82.956 E.03242
G1 X133.044 Y83.687 E.03242
G1 X133.637 Y84.534 E.03242
G1 X134.074 Y85.471 E.03242
G1 X134.342 Y86.47 E.03242
G1 X134.412 Y87.274 E.02532
G1 X134.436 Y87.82 E.01711
G1 X134.436 Y143.454 E1.74436
G1 X134.342 Y144.53 E.03388
G1 X134.074 Y145.529 E.03242
G1 X133.637 Y146.466 E.03242
G1 X133.044 Y147.313 E.03242
G1 X132.313 Y148.044 E.03242
G1 X131.466 Y148.637 E.03242
G1 X130.529 Y149.074 E.03242
G1 X129.53 Y149.342 E.03242
G1 X128.513 Y149.431 E.032
G1 E-3.5 F3600
;WIPE_START
G1 F7200
G1 X125.513 Y149.431 E-1.425
;WIPE_END
G1 E-.075 F3600
G1 X121.002 Y96.963 F9000
G1 E5 F2400
;TYPE:External perimeter
G1 F1200
G1 X120.442 Y96.855 E.01787
G1 X119.955 Y96.599 E.01725
G1 X119.511 Y96.203 E.01864
G1 X119.3 Y95.896 E.01169
G1 X119.132 Y95.508 E.01326
G1 X119.036 Y95.023 E.01552
G1 X119.052 Y94.489 E.01675
G1 X119.179 Y94.049 E.01435
G1 X119.451 Y93.57 E.01727
G1 X119.797 Y93.197 E.01596
G1 X120.104 Y92.986 E.01167
G1 X120.442 Y92.832 E.01167
G1 X120.802 Y92.738 E.01167
G1 X121.156 Y92.71 E.01112
G1 X121.544 Y92.744 E.0122
G1 X121.902 Y92.843 E.01167
G1 X122.238 Y93.003 E.01167
G1 X122.662 Y93.338 E.01694
G1 X122.997 Y93.762 E.01694
G1 X123.168 Y94.128 E.01269
G1 X123.262 Y94.489 E.01167
G1 X123.292 Y94.86 E.01167
G1 X123.256 Y95.23 E.01167
G1 X123.157 Y95.589 E.01167
G1 X122.997 Y95.925 E.01167
G1 X122.761 Y96.248 E.01255
G1 X122.496 Y96.504 E.01156
G1 X122.224 Y96.69 E.01033
G1 X121.767 Y96.883 E.01555
G1 X121.511 Y96.948 E.00828
G1 X121.062 Y96.961 E.01411
G1 X120.771 Y97.289 F9000
G1 X121.011 Y97.338
;TYPE:Perimeter
G1 F1200
G1 X120.945 Y97.339 E.00208
G1 X120.394 Y97.232 E.01758
G1 X119.859 Y96.993 E.01839
G1 X119.505 Y96.734 E.01375
G1 X119.203 Y96.42 E.01367
G1 X118.958 Y96.056 E.01375
G1 X118.768 Y95.606 E.01532
G1 X118.661 Y95.055 E.01758
G1 X118.676 Y94.456 E.01881
G1 X118.815 Y93.938 E.0168
G1 X119.007 Y93.545 E.01372
G1 X119.265 Y93.192 E.01372
G1 X119.581 Y92.888 E.01372
G1 X119.944 Y92.644 E.01372
G1 X120.345 Y92.467 E.01372
G1 X120.769 Y92.362 E.01372
G1 X121.186 Y92.334 E.01309
G1 X121.641 Y92.379 E.01435
G1 X122.062 Y92.501 E.01373
G1 X122.455 Y92.694 E.01372
G1 X122.928 Y93.072 E.019
G1 X123.306 Y93.545 E.019
G1 X123.533 Y94.031 E.0168
G1 X123.638 Y94.456 E.01372
G1 X123.667 Y94.892 E.01372
G1 X123.621 Y95.328 E.01372
G1 X123.499 Y95.748 E.01372
G1 X123.306 Y96.141 E.01372
G1 X123.028 Y96.515 E.01461
G1 X122.712 Y96.812 E.01361
G1 X122.386 Y97.031 E.0123
G1 X121.865 Y97.247 E.0177
G1 X121.544 Y97.324 E.01034
G1 X121.071 Y97.336 E.01484
G1 E-3.5 F3600
;WIPE_START
G1 F7200
G1 X120.945 Y97.339 E-.06006
G1 X120.394 Y97.232 E-.2663
G1 X119.859 Y96.993 E-.27862
G1 X119.505 Y96.734 E-.20828
G1 X119.203 Y96.42 E-.20714
G1 X118.958 Y96.056 E-.20828
G1 X118.797 Y95.675 E-.19632
;WIPE_END
G1 E-.075 F3600
G1 X115.484 Y104.807 F9000
G1 E5 F2400
;TYPE:External perimeter
G1 F1200
G1 X114.875 Y104.757 E.01916
G1 X114.22 Y104.603 E.0211
G1 X113.62 Y104.362 E.02027
G1 X113.291 Y104.196 E.01155
G1 X112.742 Y103.812 E.02101
G1 X112.343 Y103.417 E.01761
G1 X111.998 Y102.987 E.01729
G1 X111.759 Y102.641 E.01318
G1 X111.456 Y101.989 E.02253
G1 X111.309 Y101.452 E.01747
G1 X111.243 Y101.125 E.01047
G1 X111.19 Y100.516 E.01914
G1 X111.24 Y99.912 E.01902
G1 X111.442 Y99.052 E.02769
G1 X111.725 Y98.434 E.02131
G1 X112.104 Y97.863 E.0215
G1 X112.583 Y97.343 E.02216
G1 X113.116 Y96.926 E.02122
G1 X113.434 Y96.725 E.0118
G1 X114.011 Y96.456 E.01994
G1 X114.525 Y96.315 E.01672
G1 X114.912 Y96.24 E.01236
G1 X115.459 Y96.192 E.01723
G1 X116.14 Y96.245 E.02141
G1 X116.78 Y96.397 E.02061
G1 X117.38 Y96.638 E.02027
G1 X117.709 Y96.804 E.01155
G1 X118.258 Y97.188 E.02101
G1 X118.656 Y97.583 E.01759
G1 X119.002 Y98.013 E.01731
G1 X119.241 Y98.359 E.01318
G1 X119.544 Y99.011 E.02253
G1 X119.691 Y99.548 E.01747
G1 X119.757 Y99.875 E.01047
G1 X119.81 Y100.506 E.01985
G1 X119.762 Y101.059 E.0174
G1 X119.68 Y101.492 E.01381
G1 X119.548 Y101.981 E.01587
G1 X119.28 Y102.557 E.01992
G1 X118.896 Y103.137 E.02182
G1 X118.417 Y103.657 E.02216
G1 X118.137 Y103.896 E.01154
G1 X117.669 Y104.224 E.01792
G1 X116.989 Y104.544 E.02355
G1 X116.452 Y104.691 E.01749
G1 X116.059 Y104.762 E.0125
G1 X115.544 Y104.807 E.01621
G1 X115.279 Y105.15 F9000
G1 X115.457 Y105.178
;TYPE:Perimeter
G1 F1200
G1 X114.842 Y105.132 E.01932
G1 X114.122 Y104.968 E.02316
G1 X113.692 Y104.812 E.01436
G1 X113.2 Y104.582 E.01702
G1 X112.646 Y104.205 E.021
G1 X112.077 Y103.684 E.02422
G1 X111.689 Y103.203 E.01935
G1 X111.418 Y102.8 E.01524
G1 X111.114 Y102.149 E.02253
G1 X110.945 Y101.55 E.01952
G1 X110.868 Y101.158 E.01253
G1 X110.815 Y100.549 E.01914
G1 X110.865 Y99.879 E.02107
G1 X110.951 Y99.427 E.01442
G1 X111.08 Y98.944 E.01569
G1 X111.383 Y98.275 E.02303
G1 X111.795 Y97.646 E.02356
G1 X112.077 Y97.316 E.0136
G1 X112.451 Y96.942 E.01658
G1 X112.9 Y96.617 E.01739
G1 X113.275 Y96.383 E.01386
G1 X113.851 Y96.114 E.01994
G1 X114.427 Y95.951 E.01877
G1 X114.879 Y95.865 E.01442
G1 X115.426 Y95.817 E.01723
G1 X116.171 Y95.87 E.0234
G1 X116.878 Y96.032 E.02274
G1 X117.308 Y96.188 E.01436
G1 X117.8 Y96.418 E.01702
G1 X118.354 Y96.795 E.021
G1 X118.923 Y97.316 E.0242
G1 X119.311 Y97.797 E.01937
G1 X119.582 Y98.2 E.01524
G1 X119.886 Y98.851 E.02253
G1 X120.055 Y99.45 E.01952
G1 X120.132 Y99.843 E.01253
G1 X120.187 Y100.518 E.02126
G1 X120.138 Y101.092 E.01805
G1 X120.045 Y101.59 E.01587
G1 X119.898 Y102.122 E.01733
G1 X119.622 Y102.716 E.02053
G1 X119.205 Y103.354 E.02388
G1 X118.923 Y103.684 E.0136
G1 X118.549 Y104.058 E.01658
G1 X118.092 Y104.388 E.0177
G1 X117.716 Y104.622 E.01388
G1 X117.149 Y104.886 E.01962
G1 X116.549 Y105.056 E.01954
G1 X116.092 Y105.138 E.01456
G1 X115.517 Y105.183 E.01809
G1 E-3.5 F3600
;WIPE_START
G1 F7200
G1 X114.842 Y105.132 E-.32125
G1 X114.122 Y104.968 E-.35082
G1 X113.692 Y104.812 E-.21752
G1 X113.2 Y104.582 E-.25778
G1 X112.717 Y104.253 E-.27762
;WIPE_END
G1 E-.075 F3600
G1 X118.859 Y96.66 F9000
G1 E5 F2400
;WIDTH:0.503666
G1 F1200
G1 X119.214 Y97.025 E.01949
;WIDTH:0.50706
G1 X119.355 Y97.153 E.00736
G1 E-3.5 F3600
;WIPE_START
G1 F7200
G1 X119.214 Y97.025 E-.09053
G1 X118.859 Y96.66 E-.24168
;WIPE_END
G1 E-1.16779 F3600
G1 X122.177 Y109.35 F9000
G1 E5 F2400
;TYPE:External perimeter
;WIDTH:0.419999
G1 F1200
G1 X121.831 Y109.317 E.01091
G1 X121.472 Y109.218 E.01167
G1 X121.106 Y109.034 E.01285
G1 X120.833 Y108.842 E.01045
G1 X120.572 Y108.577 E.01167
G1 X120.361 Y108.271 E.01167
G1 X120.206 Y107.932 E.01167
G1 X120.1 Y107.427 E.01619
G1 X120.112 Y106.863 E.01768
G1 X120.254 Y106.393 E.01539
G1 X120.461 Y106.016 E.0135
G1 X120.833 Y105.593 E.01765
G1 X121.164 Y105.361 E.01269
G1 X121.503 Y105.206 E.01167
G1 X121.863 Y105.112 E.01167
G1 X122.451 Y105.103 E.01845
G1 X122.94 Y105.208 E.01569
G1 X123.299 Y105.377 E.01243
G1 X123.602 Y105.593 E.01167
G1 X123.863 Y105.858 E.01167
G1 X124.074 Y106.164 E.01167
G1 X124.229 Y106.503 E.01167
G1 X124.323 Y106.863 E.01167
G1 X124.352 Y107.234 E.01167
G1 X124.317 Y107.604 E.01167
G1 X124.218 Y107.963 E.01167
G1 X124.066 Y108.283 E.01112
G1 X123.842 Y108.602 E.0122
G1 X123.577 Y108.863 E.01167
G1 X123.181 Y109.116 E.01474
G1 X122.932 Y109.229 E.00856
G1 X122.572 Y109.323 E.01167
G1 X122.237 Y109.349 E.01055
G1 X122 Y109.649 F9000
G1 X122.213 Y109.725
;TYPE:Perimeter
G1 F1200
G1 X121.733 Y109.681 E.01512
G1 X121.313 Y109.56 E.01372
G1 X120.892 Y109.345 E.01482
G1 X120.566 Y109.109 E.0126
G1 X120.263 Y108.793 E.01373
G1 X120.019 Y108.43 E.01372
G1 X119.842 Y108.03 E.01372
G1 X119.724 Y107.46 E.01825
G1 X119.709 Y107.146 E.00985
G1 X119.754 Y106.733 E.01302
G1 X119.912 Y106.234 E.01643
G1 X120.152 Y105.799 E.01556
G1 X120.326 Y105.566 E.00912
G1 X120.642 Y105.263 E.01372
G1 X121.005 Y105.019 E.01372
G1 X121.405 Y104.842 E.01372
G1 X121.83 Y104.737 E.01372
G1 X122.247 Y104.708 E.01309
G1 X122.702 Y104.754 E.01435
G1 X123.16 Y104.893 E.015
G1 X123.515 Y105.068 E.01243
G1 X123.869 Y105.326 E.01372
G1 X124.172 Y105.642 E.01372
G1 X124.416 Y106.005 E.01372
G1 X124.593 Y106.405 E.01372
G1 X124.698 Y106.83 E.01372
G1 X124.728 Y107.267 E.01372
G1 X124.681 Y107.702 E.01372
G1 X124.56 Y108.122 E.01372
G1 X124.376 Y108.497 E.01309
G1 X124.109 Y108.869 E.01435
G1 X123.793 Y109.172 E.01373
G1 X123.34 Y109.458 E.0168
G1 X123.03 Y109.593 E.01062
G1 X122.605 Y109.698 E.01372
G1 X122.273 Y109.721 E.01042
G1 X122.231 Y110.098 F9000
G1 F1200
G1 X122.135 Y110.104 E.00302
G1 X121.635 Y110.045 E.01578
G1 X121.153 Y109.901 E.01578
G1 X120.678 Y109.655 E.01679
G1 X120.3 Y109.376 E.01475
G1 X119.954 Y109.01 E.01578
G1 X119.677 Y108.589 E.01578
G1 X119.477 Y108.127 E.01578
G1 X119.361 Y107.638 E.01578
G1 X119.331 Y107.135 E.01578
G1 X119.39 Y106.635 E.01578
G1 X119.534 Y106.153 E.01578
G1 X119.759 Y105.703 E.01578
G1 X120.06 Y105.299 E.01578
G1 X120.425 Y104.954 E.01578
G1 X120.846 Y104.677 E.01578
G1 X121.308 Y104.477 E.01578
G1 X121.797 Y104.361 E.01578
G1 X122.277 Y104.332 E.01505
G1 X122.8 Y104.39 E.0165
G1 X123.282 Y104.534 E.01578
G1 X123.732 Y104.759 E.01578
G1 X124.136 Y105.059 E.01578
G1 X124.481 Y105.425 E.01578
G1 X124.758 Y105.846 E.01578
G1 X124.958 Y106.308 E.01578
G1 X125.074 Y106.797 E.01578
G1 X125.104 Y107.3 E.01578
G1 X125.045 Y107.8 E.01578
G1 X124.901 Y108.282 E.01578
G1 X124.687 Y108.711 E.01505
G1 X124.376 Y109.136 E.0165
G1 X124.01 Y109.481 E.01578
G1 X123.589 Y109.758 E.01578
G1 X123.127 Y109.958 E.01578
G1 X122.638 Y110.074 E.01578
G1 X122.291 Y110.094 E.01088
G1 E-3.5 F3600
;WIPE_START
G1 F7200
G1 X122.135 Y110.104 E-.07422
G1 X121.635 Y110.045 E-.23906
G1 X121.153 Y109.901 E-.23904
G1 X120.678 Y109.655 E-.25432
G1 X120.3 Y109.376 E-.22343
G1 X119.954 Y109.01 E-.23909
G1 X119.773 Y108.736 E-.15584
;WIPE_END
G1 E-.075 F3600
G1 X109.539 Y108.252 F9000
G1 E5 F2400
;TYPE:External perimeter
G1 F1200
G1 X109.128 Y108.168 E.01313
G1 X108.762 Y107.997 E.01269
G1 X108.458 Y107.782 E.01167
G1 X108.197 Y107.516 E.01167
G1 X107.986 Y107.21 E.01167
G1 X107.832 Y106.872 E.01167
G1 X107.738 Y106.511 E.01167
G1 X107.708 Y106.14 E.01167
G1 X107.744 Y105.77 E.01167
G1 X107.843 Y105.411 E.01167
G1 X108.003 Y105.075 E.01167
G1 X108.314 Y104.677 E.01586
G1 X108.484 Y104.511 E.00743
G1 X108.79 Y104.3 E.01167
G1 X109.233 Y104.117 E.01502
G1 X109.811 Y104.023 E.01836
G1 X110.23 Y104.057 E.01318
G1 X110.589 Y104.156 E.01167
G1 X111.045 Y104.401 E.01623
G1 X111.468 Y104.772 E.01765
G1 X111.7 Y105.104 E.01269
G1 X111.868 Y105.492 E.01326
